public/assets/images/icons/yellow/trash.svg

<svg xmlns="http://www.w3.org/2000/svg" viewBox="0 0 54 54"><path d="M43 8h-8.12a6.22 6.22 0 0 0-6.1-5h-3.56a6.22 6.22 0 0 0-6.1 5H11a3 3 0 0 0-3 3v2h38v-2a3 3 0 0 0-3-3zM25.22 6h3.56a3.22 3.22 0 0 1 3 2h-9.54a3.22 3.22 0 0 1 2.98-2zM11 48a3 3 0 0 0 3 3h26a3 3 0 0 0 3-3V15H11zm3-30h26v30H14z" fill="#ffad00"/><path d="M17 19.97h4v26h-4zm8 0h4v26h-4zm8 0h4v26h-4z" fill="#ffad00"/></svg>

<svg xmlns="http://www.w3.org/2000/svg" viewBox="0 0 54 54"><defs><style>.a{fill:#ffad00;}</style></defs><path class="a" d="M43,8H34.88a6.22,6.22,0,0,0-6.1-5H25.22a6.22,6.22,0,0,0-6.1,5H11a3,3,0,0,0-3,3v2H46V11A3,3,0,0,0,43,8ZM25.22,6h3.56a3.22,3.22,0,0,1,3,2H22.24A3.22,3.22,0,0,1,25.22,6Z"/><path class="a" d="M11,48a3,3,0,0,0,3,3H40a3,3,0,0,0,3-3V15H11Zm3-30H40V48H14Z"/><rect class="a" x="17" y="19.97" width="4" height="26"/><rect class="a" x="25" y="19.97" width="4" height="26"/><rect class="a" x="33" y="19.97" width="4" height="26"/></svg>
